X:53
T:An upper part of appregiated chords
M:3/2
L:1/2
Q:1/2=100
K:Dmin
%%MIDI program 1 70 % Bassoon
%%MIDI program 2 68 % Oboe
V:Bassoon
z3|d/f/a/f/a/d/|f/a/c'/a/f/c/|d/f/a/b/f/d/|c/e/_g/e/_g/c/|f/a/c/e/d/f/|d/a/c/a/c/d/||
V:Oboe%%name="Oboe" snm="Ob"
z2 D|D2 (C/2D/2)|F2 (G/2F/2)|D2 A|c2 (A/2G/2)|F2 G|A3||

